resources/svg/bank-light.svg

<svg xmlns="http://www.w3.org/2000/svg" viewBox="0 0 256 256" fill="currentColor"><path d="M24.00244,102h26v68h-18a6,6,0,0,0,0,12h192a6,6,0,0,0,0-12h-18V102h26A6.00016,6.00016,0,0,0,235.147,90.88965l-104-64a6.00491,6.00491,0,0,0-6.28906,0l-104,64A6.00016,6.00016,0,0,0,24.00244,102Zm38,0h36v68h-36Zm84,0v68h-36V102Zm48,68h-36V102h36Zm-66-130.95508L210.8042,90H45.20068ZM246.00244,208a6.00029,6.00029,0,0,1-6,6h-224a6,6,0,0,1,0-12h224A6.00029,6.00029,0,0,1,246.00244,208Z"/></svg>

<svg xmlns="http://www.w3.org/2000/svg" viewBox="0 0 256 256" fill="currentColor"><path d="M24,102H50v68H32a6,6,0,0,0,0,12H224a6,6,0,0,0,0-12H206V102h26a6,6,0,0,0,3.1-11.1l-104-64a5.8,5.8,0,0,0-6.2,0l-104,64A6,6,0,0,0,24,102Zm38,0H98v68H62Zm84,0v68H110V102Zm48,68H158V102h36ZM128,39l82.8,51H45.2ZM246,208a6,6,0,0,1-6,6H16a6,6,0,0,1,0-12H240A6,6,0,0,1,246,208Z"/></svg>
